assets/shop-tab/Asset/Flight.svg

<svg width="30" height="30" viewBox="0 0 30 30" fill="none" xmlns="http://www.w3.org/2000/svg">
<g clip-path="url(#clip0_570_971)">
<path d="M24.9159 4.0903C25.9972 5.17169 26.1828 6.86993 25.3033 8.12095C23.9698 10.0176 22.6678 11.6399 21.3444 13.1045C21.2773 13.1789 21.2379 13.2745 21.2332 13.3745L20.6656 25.8939C20.6512 26.2101 20.5192 26.5097 20.2955 26.7336C19.6284 27.4007 18.4919 27.1327 18.1935 26.2378L15.8236 19.1253C15.7279 18.8381 15.3726 18.7371 15.1386 18.9292C13.7469 20.0716 12.2648 21.2206 10.6502 22.4665C10.478 22.5994 10.3624 22.7925 10.3269 23.007L9.85117 25.8794C9.7088 26.7391 8.96911 27.4101 8.10827 27.4607C7.26439 27.5103 6.54813 26.9485 6.4061 26.1259L5.99347 23.7347C5.9316 23.3761 5.65078 23.0953 5.29222 23.0334L2.90095 22.6208C2.07853 22.4788 1.51681 21.7623 1.56615 20.9186C1.61698 20.0579 2.28859 19.3174 3.14816 19.175L6.02215 18.6988C6.23983 18.6627 6.43543 18.5443 6.56817 18.368C7.81152 16.7172 8.91409 15.2344 10.0059 13.8489C10.1911 13.6139 10.0881 13.2654 9.80422 13.1708L2.79323 10.8347C1.89645 10.5358 1.62769 9.3971 2.29604 8.72862C2.5182 8.50653 2.81513 8.37498 3.12883 8.35849L15.5426 7.70594C15.6399 7.70081 15.7325 7.66203 15.8056 7.59752C17.2449 6.32793 18.8988 5.04585 20.9087 3.67943C22.1624 2.82714 23.8439 3.01834 24.9159 4.0903Z" fill="white"/>
</g>
<defs>
<clipPath id="clip0_570_971">
<rect width="29.4" height="29.4" fill="white"/>
</clipPath>
</defs>
</svg>

<svg xmlns="http://www.w3.org/2000/svg" width="30" height="30" fill="none" viewBox="0 0 30 30"><g clip-path="url(#a)"><path fill="#fff" d="M24.916 4.09c1.081 1.082 1.267 2.78.387 4.031a52 52 0 0 1-3.959 4.983.43.43 0 0 0-.11.27l-.568 12.52a1.27 1.27 0 0 1-2.472.344l-2.37-7.113a.433.433 0 0 0-.685-.196c-1.392 1.143-2.874 2.292-4.489 3.538a.86.86 0 0 0-.323.54l-.476 2.872a1.91 1.91 0 0 1-1.743 1.582 1.603 1.603 0 0 1-1.702-1.335l-.413-2.391a.86.86 0 0 0-.7-.702L2.9 22.621a1.605 1.605 0 0 1-1.335-1.702 1.91 1.91 0 0 1 1.582-1.744l2.874-.476a.86.86 0 0 0 .546-.331c1.244-1.65 2.346-3.134 3.438-4.52a.433.433 0 0 0-.202-.677l-7.01-2.336a1.272 1.272 0 0 1 .335-2.477l12.414-.652a.43.43 0 0 0 .263-.108c1.439-1.27 3.093-2.552 5.103-3.919 1.253-.852 2.935-.66 4.007.411"/></g><defs><clipPath id="a"><path fill="#fff" d="M0 0h29.4v29.4H0z"/></clipPath></defs></svg>
